app/dist/common/images/bristol-myers-squibb.svg

<svg height="18" width="18" xmlns="http://www.w3.org/2000/svg" xmlns:xlink="http://www.w3.org/1999/xlink"><linearGradient id="a" gradientUnits="userSpaceOnUse" x1="3.349" x2="21.904" y1="3.122" y2="24.434"><stop offset="0" stop-color="#1a1e21"/><stop offset="1" stop-color="#06060a"/></linearGradient><path d="m0 0h18v18h-18z" fill="url(#a)"/><path d="m8.896 7.995-2.021-3.319 2.021 1.142zm.104-2.357-2.004-1.138h4.008zm2.125-.962-2.021 1.142v2.177zm-5.103.286-2.022 3.32 2.022-1.142zm.103 2.358-2.004 1.18h4.009zm2.125.962-2.02-1.142v-2.178l2.022 3.32zm-1.375 5.026 2.021-3.275v2.134zm.121.192 2.004-1.154 2.004 1.154zm2.108-1.333 2.021 1.141-2.021-3.275zm.646-3.885 2.021-3.32v2.178zm.12.218 2.005-1.18 2.004 1.18zm2.108-1.36 2.022 1.142-2.022-3.32zm-5.956 5.882-2.022-3.276 2.022 1.142zm.103-2.314-2.004-1.208h4.009l-2.004 1.208zm2.125-.962-2.02 1.142v2.134zm3.521 3.276-2.021-3.276 2.022 1.142v2.134zm.104-2.314-2.005-1.208h4.008l-2.004 1.208zm2.125-.962-2.022 1.142v2.134z" fill="#fff"/></svg>

<!-- by TradingView --><svg width="18" height="18" xmlns="http://www.w3.org/2000/svg"><path fill="url(#paint0_linear)" d="M0 0h18v18H0z"/><path d="M8.896 7.995L6.875 4.676l2.021 1.142v2.177zM9 5.638L6.996 4.5h4.008L9 5.638zM11.125 4.676L9.104 5.818v2.177l2.021-3.319zM6.022 4.962L4 8.282 6.022 7.14V4.962zM6.125 7.32L4.121 8.5H8.13L6.125 7.32zM8.25 8.282L6.23 7.14V4.962l2.022 3.32zM6.875 13.308l2.021-3.275v2.134l-2.021 1.141zM6.996 13.5L9 12.346l2.004 1.154H6.996zM9.104 12.167l2.021 1.141-2.021-3.275v2.134zM9.75 8.282l2.021-3.32V7.14L9.75 8.282zM9.87 8.5l2.005-1.18 2.004 1.18H9.87zM11.978 7.14L14 8.282l-2.022-3.32V7.14zM6.022 13.022L4 9.746l2.022 1.142v2.134zM6.125 10.708L4.121 9.5H8.13l-2.004 1.208zM8.25 9.746L6.23 10.888v2.134L8.25 9.746zM11.771 13.022L9.75 9.746l2.022 1.142v2.134zM11.875 10.708L9.87 9.5h4.008l-2.004 1.208zM14 9.746l-2.022 1.142v2.134L14 9.746z" fill="#fff"/><defs><linearGradient id="paint0_linear" x1="3.349" y1="3.122" x2="21.904" y2="24.434" gradientUnits="userSpaceOnUse"><stop stop-color="#1A1E21"/><stop offset="1" stop-color="#06060A"/></linearGradient></defs></svg>
